X:1
T:Title
%%score { ( 1 3 ) | ( 2 4 ) }
L:1/8
M:6/8
K:F
V:1 treble nm="Grand Piano"
V:3 treble 
V:2 bass 
V:4 bass 
V:1
 z3 z2[Q:1/4=81] C | [FA][EA][DA] [CA][FA][EA] | [DA]3 [CA]2 [FA] | [Ed][Ec][EB] [EB][EA]>[E_A] | %4
[M:5/8] A- A3 z |[M:1/8] C |[M:3/4] [FA][EA] [DA][CA] [FA][EA] | [DA]3 [CA]2 [FA] | %8
 [Ed][Ec] [DEB][CEA] [CEA]>[B,EG] |[M:5/8] [A,F]- [A,F]3 z |[M:1/8] F | %11
[M:3/4] [Fd]>[Fd] [Fd] f2 e/d/ | cA d c2 A | G=B df ed |[M:5/8] c-[Ec-][Fc-] [Gc]F |[M:1/8] [Ec] | %16
[M:3/4] c>=B c[Af] [Fc][_EA] | [DG]>[D^F] [DG] [Dd]2 [Dd] | [B,CE][B,EG] [DEB][CEA] [CEA]>[B,EG] | %19
[M:5/8] [A,F]- [A,F]3 z |] %20
V:2
 z3 z2 C, | [F,,F,][F,,F,][F,,F,] [F,,F,][F,,F,][F,,F,] | [F,,F,]3 [F,,F,]2 [F,C] | %3
 [C,B,][C,B,][C,G,] [C,C][C,C]>[C,C] |[M:5/8] [F,CF]- [F,CF]3 z |[M:1/8] C, | %6
[M:3/4] [F,,F,][F,,F,] [F,,F,][F,,F,] [F,,F,][F,,F,] | [F,,F,]3 [F,,F,]2 [F,C] | %8
 [C,B,][C,B,] C,C, C,>C, |[M:5/8] F,- F,3 z |[M:1/8] F, | %11
[M:3/4] [B,,B,]>[B,,B,] [B,,B,][K:treble] [B,DF]2 [B,CF]/[B,F]/ | %12
 [F,A,F][F,CF] [F,B,F] [F,A,F]2 [F,CF] | [G,=B,F][G,DF] [G,B,F][G,B,A] [G,B,G][G,B,F] | %14
[M:5/8][K:bass] z G,A, B,A, |[M:1/8] [C,G,] |[M:3/4] [F,A,F]>[F,_A,F] [F,=A,F][F,C] [F,A,][F,C] | %17
 [B,,B,]>[B,,B,] [B,,B,] [B,,G,]2 [B,,G,] | C,C, C,C, C,>C, |[M:5/8] F,- F,3 z |] %20
V:3
 x6 | x6 | x6 | x6 |[M:5/8] x5 |[M:1/8] x |[M:3/4] x6 | x6 | x6 |[M:5/8] x5 |[M:1/8] x | %11
[M:3/4] x6 | x6 | x6 |[M:5/8] [CE] z z z2 |[M:1/8] x |[M:3/4] x6 | x6 | x6 |[M:5/8] x5 |] %20
V:4
 x6 | x6 | x6 | x6 |[M:5/8] x5 |[M:1/8] x |[M:3/4] x6 | x6 | x6 |[M:5/8] x5 |[M:1/8] x | %11
[M:3/4] x3[K:treble] x3 | x6 | x6 |[M:5/8][K:bass] C,- C,3 z |[M:1/8] x |[M:3/4] x6 | x6 | x6 | %19
[M:5/8] x5 |] %20

